icons/chevron-square-rightB.svg

<svg width="24" height="24" viewBox="0 0 24 24" fill="none" xmlns="http://www.w3.org/2000/svg">
<path d="M21 9V15C21 18.3 18.3 21 15 21H9C5.7 21 3 18.3 3 15V9C3 5.7 5.7 3 9 3H15C18.3 3 21 5.6 21 9Z" fill="black"/>
<path fill-rule="evenodd" clip-rule="evenodd" d="M9 3.75C6.11421 3.75 3.75 6.11421 3.75 9V15C3.75 17.8858 6.11421 20.25 9 20.25H15C17.8858 20.25 20.25 17.8858 20.25 15V9C20.25 6.02236 17.894 3.75 15 3.75H9ZM2.25 9C2.25 5.28579 5.28579 2.25 9 2.25H15C18.706 2.25 21.75 5.17764 21.75 9V15C21.75 18.7142 18.7142 21.75 15 21.75H9C5.28579 21.75 2.25 18.7142 2.25 15V9Z" fill="black"/>
<path fill-rule="evenodd" clip-rule="evenodd" d="M9.76972 7.76972C10.0626 7.47683 10.5375 7.47683 10.8304 7.76972L14.0304 10.9697C14.2952 11.2345 14.475 11.5923 14.475 11.9875C14.475 12.3706 14.3027 12.7305 13.9887 12.972L10.8304 16.1304C10.5375 16.4233 10.0626 16.4233 9.76972 16.1304C9.47683 15.8375 9.47683 15.3626 9.76972 15.0697L12.8894 11.95L9.76972 8.83038C9.47683 8.53749 9.47683 8.06261 9.76972 7.76972ZM12.9869 12.0508C12.9868 12.0508 12.9865 12.0503 12.9859 12.0492L12.9869 12.0508Z" fill="white"/>
</svg>

<svg xmlns="http://www.w3.org/2000/svg" fill="none" viewBox="0 0 24 24">
  <path fill="#000" d="M21 9v6c0 3.3-2.7 6-6 6H9c-3.3 0-6-2.7-6-6V9c0-3.3 2.7-6 6-6h6c3.3 0 6 2.6 6 6Z"/>
  <path fill="#000" fill-rule="evenodd" d="M9 3.75C6.114 3.75 3.75 6.114 3.75 9v6c0 2.886 2.364 5.25 5.25 5.25h6c2.886 0 5.25-2.364 5.25-5.25V9c0-2.978-2.356-5.25-5.25-5.25H9ZM2.25 9c0-3.714 3.036-6.75 6.75-6.75h6c3.706 0 6.75 2.928 6.75 6.75v6c0 3.714-3.036 6.75-6.75 6.75H9c-3.714 0-6.75-3.036-6.75-6.75V9Z" clip-rule="evenodd"/>
  <path fill="#fff" fill-rule="evenodd" d="M9.77 7.77a.75.75 0 0 1 1.06 0l3.2 3.2c.265.264.445.622.445 1.018 0 .383-.172.742-.486.984L10.83 16.13a.75.75 0 1 1-1.06-1.06l3.12-3.12-3.12-3.12a.75.75 0 0 1 0-1.06Zm3.217 4.28h-.001Z" clip-rule="evenodd"/>
</svg>
